modules/hawcons-filled/icons/flashed-face-glasses.svg

<?xml version="1.0" encoding="UTF-8" standalone="no"?>
<svg width="32px" height="32px" viewBox="0 0 32 32" version="1.1" xmlns="http://www.w3.org/2000/svg" xmlns:xlink="http://www.w3.org/1999/xlink" xmlns:sketch="http://www.bohemiancoding.com/sketch/ns">
    <!-- Generator: Sketch 3.0.3 (7891) - http://www.bohemiancoding.com/sketch -->
    <title>icon 3 flashed face glasses</title>
    <desc>Created with Sketch.</desc>
    <defs></defs>
    <g id="Page-1" stroke="none" stroke-width="1" fill="none" fill-rule="evenodd" sketch:type="MSPage">
        <g id="icon-3-flashed-face-glasses" sketch:type="MSArtboardGroup" fill="#929292">
            <path d="M9.19457628,11.9348875 C9.62423195,10.8038326 10.7182433,10 12,10 C13.3062189,10 14.4174579,10.8348076 14.8292943,12 L18.1707057,12 C18.5825421,10.8348076 19.6937811,10 21,10 C22.2817567,10 23.3757681,10.8038326 23.8054237,11.9348875 L23.8054237,11.9348875 L27.1377903,9.9325996 C24.9349694,6.37207387 20.9944986,4 16.5,4 C12.0055014,4 8.06503057,6.37207387 5.86220968,9.9325996 L9.19457628,11.9348875 Z M9.00003854,12.9846308 C9.00001286,12.9897508 9,12.9948739 9,13 C9,14.6568543 10.3431457,16 12,16 C13.6568543,16 15,14.6568543 15,13 L15,13 L18,13 C18,14.6568543 19.3431457,16 21,16 C22.6568543,16 24,14.6568543 24,13 C24,12.9948739 23.9999871,12.9897508 23.9999615,12.9846308 L27.6296161,10.8037142 C28.5056715,12.5119518 29,14.4482476 29,16.5 C29,23.4035597 23.4035597,29 16.5,29 C9.59644029,29 4,23.4035597 4,16.5 C4,14.4482476 4.49432845,12.5119518 5.37038387,10.8037142 L9.00003854,12.9846308 Z M12,15 C13.1045696,15 14,14.1045696 14,13 C14,11.8954304 13.1045696,11 12,11 C10.8954304,11 10,11.8954304 10,13 C10,14.1045696 10.8954304,15 12,15 Z M21,15 C22.1045696,15 23,14.1045696 23,13 C23,11.8954304 22.1045696,11 21,11 C19.8954304,11 19,11.8954304 19,13 C19,14.1045696 19.8954304,15 21,15 Z M12,14 C12.5522848,14 13,13.5522848 13,13 C13,12.4477152 12.5522848,12 12,12 C11.4477152,12 11,12.4477152 11,13 C11,13.5522848 11.4477152,14 12,14 Z M21,14 C21.5522848,14 22,13.5522848 22,13 C22,12.4477152 21.5522848,12 21,12 C20.4477152,12 20,12.4477152 20,13 C20,13.5522848 20.4477152,14 21,14 Z M16.5,24 C17.8807119,24 19,22.8807119 19,21.5 C19,20.1192881 17.8807119,19 16.5,19 C15.1192881,19 14,20.1192881 14,21.5 C14,22.8807119 15.1192881,24 16.5,24 Z" id="flashed-face-glasses" sketch:type="MSShapeGroup"></path>
        </g>
    </g>
</svg>

<svg width="32" height="32" viewBox="0 0 32 32" xmlns="http://www.w3.org/2000/svg"><path d="M9.195 11.935a3.001 3.001 0 0 1 5.634.065h3.342a3.001 3.001 0 0 1 5.634-.065l3.333-2.002A12.492 12.492 0 0 0 16.5 4 12.492 12.492 0 0 0 5.862 9.933l3.333 2.002zM9 12.985V13a3 3 0 1 0 6 0h3a3 3 0 1 0 6-.015l3.63-2.181A12.447 12.447 0 0 1 29 16.5C29 23.404 23.404 29 16.5 29S4 23.404 4 16.5c0-2.052.494-3.988 1.37-5.696L9 12.984zM12 15a2 2 0 1 0 0-4 2 2 0 0 0 0 4zm9 0a2 2 0 1 0 0-4 2 2 0 0 0 0 4zm-9-1a1 1 0 1 0 0-2 1 1 0 0 0 0 2zm9 0a1 1 0 1 0 0-2 1 1 0 0 0 0 2zm-4.5 10a2.5 2.5 0 1 0 0-5 2.5 2.5 0 0 0 0 5z" fill="#929292" fill-rule="evenodd"/></svg>
